src/assets/img/puraxelLaser.svg

<svg width="105" height="33" viewBox="0 0 105 33" fill="none" xmlns="http://www.w3.org/2000/svg">
<rect width="105" height="33" rx="4" fill="#FAF9FF"/>
<path d="M9.00375 21H10.5272V18.1289H12.1678C14.1248 18.1289 15.1737 16.9512 15.1795 15.3281C15.1737 13.6992 14.1366 12.5156 12.1912 12.5156H9.00375V21ZM10.5272 16.875V13.793H11.9569C13.1053 13.793 13.6209 14.4199 13.6209 15.3281C13.6209 16.2246 13.1053 16.8691 11.9569 16.875H10.5272ZM21.4055 12.5156V17.9297C21.4055 19.002 20.6672 19.7637 19.4953 19.7695C18.3234 19.7637 17.5793 19.002 17.5734 17.9297V12.5156H16.05V18.0586C16.0559 19.8809 17.4152 21.1289 19.4953 21.1289C21.5637 21.1289 22.9348 19.8809 22.9406 18.0586V12.5156H21.4055ZM24.1509 21H25.6744V17.8945H27.2681L28.9322 21H30.6314L28.7974 17.6367C29.7935 17.2324 30.3209 16.377 30.3267 15.2227C30.3209 13.6055 29.2837 12.5156 27.3384 12.5156H24.1509V21ZM25.6744 16.6172V13.793H27.1041C28.2525 13.793 28.7681 14.3203 28.7681 15.2227C28.7681 16.1309 28.2525 16.623 27.1041 16.6172H25.6744ZM32.3573 21L33.0605 18.9023H36.2538L36.9628 21H38.5917L35.5917 12.5156H33.7167L30.7284 21H32.3573ZM33.4706 17.6719L34.6191 14.25H34.6894L35.8437 17.6719H33.4706ZM40.5169 12.5156H38.7591L41.4075 16.7578L38.7239 21H40.4817L42.3802 17.9062H42.4505L44.3489 21H46.1184L43.4583 16.7578L46.0716 12.5156H44.3372L42.4505 15.6328H42.3802L40.5169 12.5156ZM46.8131 21H52.3561V19.7109H48.3366V17.3906H52.0397V16.1133H48.3366V13.793H52.3327V12.5156H46.8131V21ZM53.4375 21H58.7109V19.7109H54.9609V12.5156H53.4375V21ZM62.0573 21H67.3308V19.7109H63.5808V12.5156H62.0573V21ZM69.5958 21L70.2989 18.9023H73.4923L74.2012 21H75.8302L72.8302 12.5156H70.9552L67.9669 21H69.5958ZM70.7091 17.6719L71.8575 14.25H71.9278L73.0821 17.6719H70.7091ZM80.9662 14.8477H82.4311C82.4077 13.4121 81.183 12.3984 79.3842 12.3984C77.5971 12.3984 76.267 13.3945 76.267 14.8945C76.267 16.1133 77.1342 16.8164 78.5287 17.1797L79.4897 17.4258C80.4096 17.6602 81.019 17.9414 81.0248 18.6094C81.019 19.3359 80.3276 19.8223 79.3256 19.8281C78.3588 19.8223 77.6147 19.3887 77.5444 18.5039H76.0444C76.1088 20.1797 77.3627 21.1289 79.3373 21.1289C81.3705 21.1289 82.5483 20.1094 82.5483 18.6211C82.5483 17.1445 81.3295 16.4766 80.0639 16.1836L79.267 15.9727C78.5639 15.8086 77.808 15.5156 77.8139 14.8008C77.8198 14.1621 78.394 13.6934 79.3608 13.6992C80.2748 13.6934 80.8901 14.1152 80.9662 14.8477ZM83.4539 21H88.9969V19.7109H84.9773V17.3906H88.6805V16.1133H84.9773V13.793H88.9734V12.5156H83.4539V21ZM90.0783 21H91.6017V17.8945H93.1955L94.8595 21H96.5587L94.7248 17.6367C95.7209 17.2324 96.2482 16.377 96.2541 15.2227C96.2482 13.6055 95.2111 12.5156 93.2658 12.5156H90.0783V21ZM91.6017 16.6172V13.793H93.0314C94.1798 13.793 94.6955 14.3203 94.6955 15.2227C94.6955 16.1309 94.1798 16.623 93.0314 16.6172H91.6017Z" fill="#55576F"/>
<rect x="0.418103" y="0.418103" width="104.164" height="32.1638" rx="3.5819" stroke="url(#paint0_linear_1095_14642)" stroke-opacity="0.5" stroke-width="0.836207"/>
<defs>
<linearGradient id="paint0_linear_1095_14642" x1="98.6638" y1="27.6964" x2="4.15548" y2="14.307" gradientUnits="userSpaceOnUse">
<stop stop-color="#BDA8D9"/>
<stop offset="1" stop-color="#F5F0FF"/>
</linearGradient>
</defs>
</svg>

<svg width="105" height="33" fill="none" xmlns="http://www.w3.org/2000/svg"><rect width="105" height="33" rx="4" fill="#FAF9FF"/><path d="M9 21h1.5v-2.9h1.7c1.9 0 3-1.1 3-2.8 0-1.6-1.1-2.8-3-2.8H9V21zm1.5-4.1v-3.1H12c1.1 0 1.6.6 1.6 1.5s-.5 1.6-1.6 1.6h-1.5zm10.9-4.4V18c0 1-.7 1.8-1.9 1.8s-1.9-.8-1.9-1.8v-5.5H16V18c0 1.9 1.4 3.1 3.5 3.1S23 19.9 23 18v-5.5h-1.6zm2.8 8.5h1.5v-3.1h1.6L29 21h1.6l-1.8-3.4c1-.4 1.5-1.2 1.5-2.4 0-1.6-1-2.7-3-2.7h-3.1V21zm1.5-4.4v-2.8h1.4c1.2 0 1.7.5 1.7 1.4 0 .9-.5 1.4-1.7 1.4h-1.4zm6.7 4.4l.6-2.1h3.3L37 21h1.6l-3-8.5h-1.9l-3 8.5h1.7zm1.1-3.3l1.1-3.4h.1l1.1 3.4h-2.3zm7-5.2h-1.7l2.6 4.3-2.7 4.2h1.8l1.9-3h.1l1.8 3h1.8l-2.6-4.2 2.5-4.3h-1.7l-1.8 3.1h-.1l-1.9-3.1zm6.3 8.5h5.6v-1.3h-4.1v-2.3H52v-1.3h-3.7v-2.3h4v-1.3h-5.5V21zm6.6 0h5.3v-1.3H55v-7.2h-1.6V21zm8.6 0h5.3v-1.3h-3.7v-7.2H62V21zm7.6 0l.7-2.1h3.2l.7 2.1h1.6l-3-8.5H71L68 21h1.6zm1.1-3.3l1.2-3.4h.1l1 3.4h-2.3zM81 14.8h1.4c0-1.4-1.2-2.4-3-2.4s-3.1 1-3.1 2.5c0 1.2.8 1.9 2.2 2.3l1 .2c.9.3 1.5.6 1.5 1.2 0 .7-.7 1.2-1.7 1.2-.9 0-1.7-.4-1.8-1.3H76c.1 1.7 1.4 2.6 3.3 2.6 2.1 0 3.2-1 3.2-2.5s-1.2-2.1-2.5-2.4l-.7-.2c-.7-.2-1.5-.5-1.5-1.2 0-.6.6-1.1 1.6-1.1.9 0 1.5.4 1.6 1.1zm2.5 6.2H89v-1.3h-4v-2.3h3.7v-1.3H85v-2.3h4v-1.3h-5.5V21zm6.5 0h1.6v-3.1h1.6l1.7 3.1h1.7l-1.9-3.4c1-.4 1.5-1.2 1.6-2.4-.1-1.6-1.1-2.7-3-2.7H90V21zm1.6-4.4v-2.8H93c1.2 0 1.7.5 1.7 1.4 0 .9-.5 1.4-1.7 1.4h-1.4z" fill="#55576F"/><rect x=".4" y=".4" width="104.164" height="32.164" rx="3.582" stroke="url(#paint0_linear_1095_14642)" stroke-opacity=".5" stroke-width=".836"/><defs><linearGradient id="paint0_linear_1095_14642" x1="98.664" y1="27.696" x2="4.155" y2="14.307" gradientUnits="userSpaceOnUse"><stop stop-color="#BDA8D9"/><stop offset="1" stop-color="#F5F0FF"/></linearGradient></defs></svg>
